assets/instagram.svg

<svg width="80" height="80" viewBox="0 0 80 80" fill="none" xmlns="http://www.w3.org/2000/svg">
<rect width="80" height="80" rx="40" fill="url(#paint0_linear_122_59)"/>
<path d="M33.3425 40.1025C33.3425 36.4175 36.3282 33.4294 40.0121 33.4294C43.6961 33.4294 46.6833 36.4175 46.6833 40.1025C46.6833 43.7875 43.6961 46.7756 40.0121 46.7756C36.3282 46.7756 33.3425 43.7875 33.3425 40.1025ZM29.7362 40.1025C29.7362 45.7795 34.3367 50.3814 40.0121 50.3814C45.6875 50.3814 50.288 45.7795 50.288 40.1025C50.288 34.4255 45.6875 29.8236 40.0121 29.8236C34.3367 29.8236 29.7362 34.4255 29.7362 40.1025ZM48.2934 29.416C48.2932 29.8911 48.4339 30.3556 48.6976 30.7508C48.9613 31.1459 49.3362 31.4539 49.775 31.6359C50.2137 31.8179 50.6965 31.8657 51.1624 31.7732C51.6283 31.6807 52.0563 31.4521 52.3922 31.1162C52.7282 30.7804 52.9571 30.3525 53.05 29.8866C53.1428 29.4206 53.0954 28.9376 52.9139 28.4986C52.7323 28.0596 52.4246 27.6843 52.0298 27.4202C51.635 27.1561 51.1708 27.0151 50.6958 27.0149H50.6948C50.0582 27.0152 49.4477 27.2682 48.9974 27.7184C48.5472 28.1686 48.294 28.7792 48.2934 29.416V29.416ZM31.9273 56.3965C29.9762 56.3076 28.9157 55.9825 28.211 55.7079C27.2766 55.344 26.61 54.9107 25.9091 54.2105C25.2082 53.5104 24.7743 52.8442 24.4122 51.9096C24.1375 51.205 23.8125 50.1439 23.7238 48.1922C23.6268 46.0822 23.6074 45.4484 23.6074 40.1027C23.6074 34.7569 23.6284 34.1249 23.7238 32.0131C23.8126 30.0614 24.14 29.0024 24.4122 28.2957C24.7759 27.3611 25.2092 26.6943 25.9091 25.9932C26.609 25.2921 27.275 24.8581 28.211 24.4958C28.9154 24.221 29.9762 23.8959 31.9273 23.8072C34.0367 23.7102 34.6704 23.6908 40.0121 23.6908C45.3539 23.6908 45.9882 23.7118 48.0994 23.8072C50.0505 23.8961 51.1092 24.2236 51.8157 24.4958C52.75 24.8581 53.4166 25.293 54.1175 25.9932C54.8184 26.6933 55.2507 27.3611 55.6144 28.2957C55.8892 29.0003 56.2142 30.0614 56.3028 32.0131C56.3999 34.1249 56.4192 34.7569 56.4192 40.1027C56.4192 45.4484 56.3999 46.0804 56.3028 48.1922C56.214 50.1439 55.8874 51.2047 55.6144 51.9096C55.2507 52.8442 54.8175 53.511 54.1175 54.2105C53.4176 54.91 52.75 55.344 51.8157 55.7079C51.1113 55.9827 50.0505 56.3078 48.0994 56.3965C45.9899 56.4935 45.3563 56.5129 40.0121 56.5129C34.668 56.5129 34.0361 56.4935 31.9273 56.3965V56.3965ZM31.7616 20.2059C29.6312 20.303 28.1754 20.6409 26.9041 21.1357C25.5875 21.6467 24.4729 22.3323 23.3591 23.4447C22.2453 24.557 21.5617 25.6737 21.0508 26.9907C20.5561 28.2632 20.2183 29.7186 20.1213 31.8496C20.0227 33.9839 20.0001 34.6663 20.0001 40.1025C20.0001 45.5387 20.0227 46.221 20.1213 48.3554C20.2183 50.4866 20.5561 51.9418 21.0508 53.2143C21.5617 54.5305 22.2455 55.6485 23.3591 56.7603C24.4727 57.8722 25.5875 58.5568 26.9041 59.0693C28.1778 59.5641 29.6312 59.902 31.7616 59.999C33.8965 60.0961 34.5775 60.1203 40.0121 60.1203C45.4467 60.1203 46.1289 60.0977 48.2627 59.999C50.3932 59.902 51.848 59.5641 53.1201 59.0693C54.436 58.5568 55.5514 57.8727 56.6651 56.7603C57.7789 55.648 58.4611 54.5305 58.9734 53.2143C59.4681 51.9418 59.8075 50.4864 59.9029 48.3554C59.9999 46.2194 60.0225 45.5387 60.0225 40.1025C60.0225 34.6663 59.9999 33.9839 59.9029 31.8496C59.8059 29.7184 59.4681 28.2624 58.9734 26.9907C58.4611 25.6745 57.7772 24.5588 56.6651 23.4447C55.5531 22.3306 54.436 21.6467 53.1217 21.1357C51.848 20.6409 50.3931 20.3014 48.2643 20.2059C46.1305 20.1089 45.4483 20.0847 40.0137 20.0847C34.5791 20.0847 33.8965 20.1073 31.7616 20.2059Z" fill="white"/>
<defs>
<linearGradient id="paint0_linear_122_59" x1="78.4624" y1="80" x2="-1.5376" y2="-2.15337e-06" gradientUnits="userSpaceOnUse">
<stop stop-color="#FBE18A"/>
<stop offset="0.21" stop-color="#FCBB45"/>
<stop offset="0.38" stop-color="#F75274"/>
<stop offset="0.52" stop-color="#D53692"/>
<stop offset="0.74" stop-color="#8F39CE"/>
<stop offset="1" stop-color="#5B4FE9"/>
</linearGradient>
</defs>
</svg>

<svg xmlns="http://www.w3.org/2000/svg" width="80" height="80" fill="none"><rect width="80" height="80" fill="url(#a)" rx="40"/><path fill="#fff" d="M33.343 40.102a6.671 6.671 0 1 1 13.34 0 6.671 6.671 0 1 1-13.34 0Zm-3.607 0c0 5.678 4.6 10.28 10.276 10.28 5.675 0 10.276-4.602 10.276-10.28 0-5.676-4.6-10.278-10.276-10.278-5.675 0-10.276 4.601-10.276 10.278Zm18.557-10.686a2.403 2.403 0 0 0 4.1 1.7 2.403 2.403 0 0 0-1.697-4.101h-.001a2.402 2.402 0 0 0-2.402 2.401Zm-16.366 26.98c-1.95-.088-3.011-.413-3.716-.688-.934-.364-1.601-.797-2.302-1.497-.7-.7-1.135-1.367-1.497-2.301-.274-.705-.6-1.766-.688-3.718-.097-2.11-.117-2.744-.117-8.09 0-5.345.021-5.977.117-8.089.089-1.952.416-3.01.688-3.717.364-.935.797-1.602 1.497-2.303.7-.7 1.366-1.135 2.302-1.497.704-.275 1.765-.6 3.716-.689 2.11-.097 2.743-.116 8.085-.116 5.342 0 5.976.02 8.087.116 1.952.09 3.01.417 3.717.689a6.2 6.2 0 0 1 2.301 1.497c.701.7 1.134 1.368 1.497 2.303.275.704.6 1.765.689 3.717.097 2.112.116 2.744.116 8.09 0 5.345-.02 5.977-.116 8.09-.089 1.95-.416 3.012-.689 3.717-.363.934-.796 1.601-1.496 2.3-.7.7-1.368 1.134-2.302 1.498-.705.275-1.766.6-3.717.689-2.11.096-2.743.116-8.087.116-5.344 0-5.976-.02-8.085-.116Zm-.165-36.19c-2.13.097-3.587.435-4.858.93a9.815 9.815 0 0 0-3.545 2.309 9.78 9.78 0 0 0-2.308 3.546c-.495 1.272-.833 2.728-.93 4.859-.098 2.134-.12 2.816-.12 8.252 0 5.437.022 6.119.12 8.253.097 2.132.435 3.587.93 4.86a9.786 9.786 0 0 0 2.308 3.545 9.84 9.84 0 0 0 3.545 2.31c1.274.494 2.727.832 4.858.929 2.135.097 2.816.121 8.25.121 5.435 0 6.117-.022 8.25-.121 2.131-.097 3.586-.435 4.858-.93a9.84 9.84 0 0 0 3.545-2.309c1.114-1.112 1.796-2.23 2.308-3.546.495-1.272.834-2.728.93-4.859.097-2.136.12-2.816.12-8.252 0-5.437-.023-6.12-.12-8.253-.097-2.132-.435-3.588-.93-4.86a9.843 9.843 0 0 0-2.308-3.545 9.791 9.791 0 0 0-3.543-2.31c-1.274-.494-2.729-.834-4.858-.93-2.134-.096-2.816-.12-8.25-.12-5.435 0-6.117.022-8.252.12Z"/><defs><linearGradient id="a" x1="78.462" x2="-1.538" y1="80" y2="0" gradientUnits="userSpaceOnUse"><stop stop-color="#FBE18A"/><stop offset=".21" stop-color="#FCBB45"/><stop offset=".38" stop-color="#F75274"/><stop offset=".52" stop-color="#D53692"/><stop offset=".74" stop-color="#8F39CE"/><stop offset="1" stop-color="#5B4FE9"/></linearGradient></defs></svg>
